X:256
T:Recovery. Le4.256
L:1/8
B:L.Leadley MS#4 c1850
Z:vmp.Mike Hicken 2016 www.village-music-project.org.uk
M:C|
Q:1/4=150
K:D
A2d2A2d2|edef e2 fg|a2g2e2c2|d2fe dcBA|A2d2A2d2|edef e2 fg|a2g2e2c2|
e4d4|| a2g2e2c2|d2f2d2A2|g2 gg g2g2|g4f4|a2g2e2c2|d2f2d2A2|g2 gg f2e2|e4d4||
f2 ff f2f2|f6a2|g2f2e2d2|dcde f4|e2 ee e2e2|e6f2|efde cdBc|ABGAFGEF "^D.C"||

